src/assets/icon/tg-star-gold.svg

<svg width="100" height="100" viewBox="0 0 100 100" fill="none" xmlns="http://www.w3.org/2000/svg">
<path d="M47.2796 52.6578C38.7376 53.4609 30.4105 54.2421 22.0841 55.0279C19.0736 55.3121 16.4274 54.4699 14.1218 52.5157C9.829 48.8778 5.54854 45.2248 1.22302 41.6265C-0.819864 39.9271 -0.0798947 37.1099 1.80079 36.3681C2.14895 36.2307 2.53101 36.145 2.90435 36.1109C12.7225 35.2099 22.5398 34.2992 32.362 33.4444C34.0791 33.295 35.1195 32.5491 35.787 30.9435C39.4254 22.1918 43.1286 13.4668 46.8104 4.73313C46.9286 4.45298 47.0553 4.17628 47.1779 3.89795C47.7228 2.65919 48.6625 1.98601 50.0247 2.00022C51.3855 2.01443 52.3167 2.70791 52.8427 3.94931C53.7329 6.04945 54.6159 8.15242 55.5013 10.2544C58.4325 17.2142 61.376 24.1689 64.2843 31.1382C64.8767 32.5576 65.8501 33.2771 67.3834 33.4137C77.2292 34.2901 87.0717 35.2018 96.9164 36.0882C98.343 36.2167 99.3779 36.8332 99.8408 38.2293C100.267 39.515 99.8286 40.7026 98.6298 41.7158C91.1769 48.0154 83.7344 54.3276 76.2691 60.6123C75.0627 61.628 74.6956 62.7916 75.0604 64.3223C77.3291 73.8372 79.5573 83.3618 81.8129 92.8799C82.0839 94.0234 82.2557 95.1298 81.4776 96.1501C80.4682 97.4734 78.8297 97.7852 77.3412 96.8731C73.9051 94.7675 70.4876 92.6312 67.0629 90.5073C62.0008 87.3682 56.9323 84.2396 51.8816 81.0824C50.5992 80.2807 49.4027 80.2766 48.1156 81.0787C39.8342 86.24 31.539 91.3792 23.2481 96.5253C23.0327 96.6589 22.8159 96.7904 22.5981 96.9198C21.4314 97.6128 20.2667 97.5978 19.1772 96.7961C18.0919 95.9977 17.7113 94.9004 18.0227 93.574C19.3146 88.0722 20.5982 82.5684 21.8961 77.0681C22.6095 74.0442 24.3454 71.7919 27.0158 70.2019C34.2456 65.8969 41.4583 61.563 48.6741 57.2342C50.2825 56.2693 50.6162 54.572 49.4522 53.3484C48.793 52.6556 47.9607 52.5484 47.2796 52.6578Z" fill="url(#paint0_linear_238_88211)"/>
<defs>
<linearGradient id="paint0_linear_238_88211" x1="50" y1="2" x2="50" y2="97.4197" gradientUnits="userSpaceOnUse">
<stop stop-color="#AB750F"/>
<stop offset="0.516" stop-color="#D8A956"/>
<stop offset="1" stop-color="#AB750F"/>
</linearGradient>
</defs>
</svg>

<svg xmlns="http://www.w3.org/2000/svg" width="100" height="100" fill="none" xmlns:v="https://vecta.io/nano"><path d="M47.28 52.658l-25.196 2.37c-3.011.284-5.657-.558-7.962-2.512L1.223 41.627c-2.043-1.699-1.303-4.517.578-5.258.348-.137.73-.223 1.104-.257l29.458-2.666c1.717-.149 2.758-.895 3.425-2.501L46.81 4.733l.367-.835c.545-1.239 1.485-1.912 2.847-1.898s2.292.708 2.818 1.949l2.659 6.305 8.783 20.884c.592 1.419 1.566 2.139 3.099 2.275l29.533 2.675c1.427.129 2.462.745 2.924 2.141.426 1.286-.012 2.473-1.211 3.486L76.269 60.612c-1.206 1.016-1.573 2.179-1.209 3.71l6.752 28.558c.271 1.143.443 2.25-.335 3.27-1.009 1.323-2.648 1.635-4.136.723l-10.278-6.366-15.181-9.425c-1.282-.802-2.479-.806-3.766-.004L23.248 96.525l-.65.394c-1.167.693-2.331.678-3.421-.124s-1.466-1.896-1.154-3.222l3.873-16.506c.713-3.024 2.449-5.276 5.12-6.866l21.658-12.968c1.608-.965 1.942-2.662.778-3.886-.659-.693-1.491-.8-2.173-.691z" fill="url(#A)"/><defs><linearGradient id="A" x1="50" y1="2" x2="50" y2="97.42" gradientUnits="userSpaceOnUse"><stop stop-color="#ab750f"/><stop offset=".516" stop-color="#d8a956"/><stop offset="1" stop-color="#ab750f"/></linearGradient></defs></svg>
